images/icons/calendar.svg

<svg width="20" height="21" viewBox="0 0 20 21" fill="none" xmlns="http://www.w3.org/2000/svg">
<g opacity="0.3">
<path d="M7.75 12.8564C8.05 12.8564 8.25 12.6564 8.25 12.3564C8.25 12.0564 8.05 11.8564 7.75 11.8564C7.45 11.8564 7.25 12.0564 7.25 12.3564C7.25 12.6564 7.45 12.8564 7.75 12.8564Z" fill="black"/>
<path d="M17 4.85645H15V2.85645H14V4.85645H6V2.85645H5V4.85645H3C2.4 4.85645 2 5.25645 2 5.85645V16.8564C2 17.3564 2.4 17.8564 3 17.8564H17C17.5 17.8564 18 17.3564 18 16.8564V5.85645C18 5.25645 17.5 4.85645 17 4.85645ZM17 16.8564H3V9.85645H17V16.8564ZM3 8.85645V5.85645H5V7.85645H6V5.85645H14V7.85645H15V5.85645H17V8.85645H3Z" fill="black"/>
<path d="M10 12.8564C10.3 12.8564 10.5 12.6564 10.5 12.3564C10.5 12.0564 10.3 11.8564 10 11.8564C9.7 11.8564 9.5 12.0564 9.5 12.3564C9.5 12.6564 9.7 12.8564 10 12.8564Z" fill="black"/>
<path d="M12.25 12.8564C12.55 12.8564 12.75 12.6564 12.75 12.3564C12.75 12.0564 12.55 11.8564 12.25 11.8564C11.95 11.8564 11.75 12.0564 11.75 12.3564C11.75 12.6564 11.95 12.8564 12.25 12.8564Z" fill="black"/>
<path d="M7.75 13.8564C7.45 13.8564 7.25 14.0564 7.25 14.3564C7.25 14.6564 7.45 14.8564 7.75 14.8564C8.05 14.8564 8.25 14.6564 8.25 14.3564C8.25 14.0564 8.05 13.8564 7.75 13.8564Z" fill="black"/>
<path d="M5.5 12.8564C5.8 12.8564 6 12.6564 6 12.3564C6 12.0564 5.8 11.8564 5.5 11.8564C5.2 11.8564 5 12.0564 5 12.3564C5 12.6564 5.2 12.8564 5.5 12.8564Z" fill="black"/>
<path d="M5.5 13.8564C5.2 13.8564 5 14.0564 5 14.3564C5 14.6564 5.2 14.8564 5.5 14.8564C5.8 14.8564 6 14.6564 6 14.3564C6 14.0564 5.8 13.8564 5.5 13.8564Z" fill="black"/>
<path d="M10 13.8564C9.7 13.8564 9.5 14.0564 9.5 14.3564C9.5 14.6564 9.7 14.8564 10 14.8564C10.3 14.8564 10.5 14.6564 10.5 14.3564C10.5 14.0564 10.3 13.8564 10 13.8564Z" fill="black"/>
<path d="M12.25 13.8564C11.95 13.8564 11.75 14.0564 11.75 14.3564C11.75 14.6564 11.95 14.8564 12.25 14.8564C12.55 14.8564 12.75 14.6564 12.75 14.3564C12.75 14.0564 12.55 13.8564 12.25 13.8564Z" fill="black"/>
<path d="M14.5 12.8564C14.8 12.8564 15 12.6564 15 12.3564C15 12.0564 14.8 11.8564 14.5 11.8564C14.2 11.8564 14 12.0564 14 12.3564C14 12.6564 14.2 12.8564 14.5 12.8564Z" fill="black"/>
<path d="M14.5 13.8564C14.2 13.8564 14 14.0564 14 14.3564C14 14.6564 14.2 14.8564 14.5 14.8564C14.8 14.8564 15 14.6564 15 14.3564C15 14.0564 14.8 13.8564 14.5 13.8564Z" fill="black"/>
</g>
</svg>

<svg xmlns="http://www.w3.org/2000/svg" width="20" height="21" fill="none"><g fill="#000" opacity=".3"><path d="M7.75 12.86c.3 0 .5-.2.5-.5s-.2-.5-.5-.5-.5.2-.5.5.2.5.5.5Z"/><path d="M17 4.86h-2v-2h-1v2H6v-2H5v2H3c-.6 0-1 .4-1 1v11c0 .5.4 1 1 1h14c.5 0 1-.5 1-1v-11c0-.6-.5-1-1-1Zm0 12H3v-7h14v7Zm-14-8v-3h2v2h1v-2h8v2h1v-2h2v3H3Z"/><path d="M10 12.86c.3 0 .5-.2.5-.5s-.2-.5-.5-.5-.5.2-.5.5.2.5.5.5ZM12.25 12.86c.3 0 .5-.2.5-.5s-.2-.5-.5-.5-.5.2-.5.5.2.5.5.5ZM7.75 13.86c-.3 0-.5.2-.5.5s.2.5.5.5.5-.2.5-.5-.2-.5-.5-.5ZM5.5 12.86c.3 0 .5-.2.5-.5s-.2-.5-.5-.5-.5.2-.5.5.2.5.5.5ZM5.5 13.86c-.3 0-.5.2-.5.5s.2.5.5.5.5-.2.5-.5-.2-.5-.5-.5ZM10 13.86c-.3 0-.5.2-.5.5s.2.5.5.5.5-.2.5-.5-.2-.5-.5-.5ZM12.25 13.86c-.3 0-.5.2-.5.5s.2.5.5.5.5-.2.5-.5-.2-.5-.5-.5ZM14.5 12.86c.3 0 .5-.2.5-.5s-.2-.5-.5-.5-.5.2-.5.5.2.5.5.5ZM14.5 13.86c-.3 0-.5.2-.5.5s.2.5.5.5.5-.2.5-.5-.2-.5-.5-.5Z"/></g></svg>
